img/VK-dark.svg

<svg width="24" height="24" viewBox="0 0 24 24" fill="none" xmlns="http://www.w3.org/2000/svg">
<rect width="24" height="24" rx="12" fill="#F2F2ED"/>
<path d="M12.5894 16.2C8.07948 16.2 5.50709 13.0468 5.3999 7.79999H7.65899C7.73319 11.651 9.39865 13.2823 10.7178 13.6186V7.79999H12.845V11.1213C14.1477 10.9784 15.5163 9.46485 15.978 7.79999H18.1052C17.9312 8.66343 17.5844 9.48098 17.0865 10.2015C16.5885 10.922 15.9501 11.53 15.2113 11.9874C16.036 12.4053 16.7645 12.9969 17.3486 13.723C17.9327 14.4492 18.3592 15.2934 18.5999 16.2H16.2584C16.0423 15.4126 15.6031 14.7077 14.9959 14.1737C14.3887 13.6397 13.6405 13.3004 12.845 13.1982V16.2H12.5894Z" fill="#0097AA"/>
</svg>

<svg width="24" height="24" fill="none" xmlns="http://www.w3.org/2000/svg"><rect width="24" height="24" rx="12" fill="#F2F2ED"/><path d="M12.59 16.2c-4.51 0-7.083-3.153-7.19-8.4h2.259c.074 3.851 1.74 5.482 3.059 5.819V7.8h2.127v3.321c1.303-.143 2.671-1.656 3.133-3.321h2.127a6.474 6.474 0 01-1.018 2.401 6.335 6.335 0 01-1.876 1.786 6.537 6.537 0 012.138 1.736 6.691 6.691 0 011.25 2.477h-2.34a4.165 4.165 0 00-1.263-2.026 4.036 4.036 0 00-2.151-.976V16.2h-.256z" fill="#0097AA"/></svg>
